X: 1497
T:Madame Renaud
M:4/4
L:1/8
C:Trad.
R:Reel
K:G
|:"G"G2 BG dGBG|DGBd g2fg|"Am"A2 (3cBA eAcA|"D7"ABcd efge|!
"G"G2BG dGBG|DGBd g2fg|"Am"afge fdec|1"D7"ABcd efge:|2"D7"ABcd edBd||!
"G"g2fg dgBg|dgba gfed|"Am"ea^ga ea^ga|"D7"ecag fedf|!
"G"g2fg dgBg|dgba gfeg|"Am"afge fdec|1"D7"ABcd edBd:|2"D7"ABcd efge||!
%C:/music/abc/abcfiles/layton/big1.abc
